X:1
T:# / 4 mahler: wenn mein schatz hochzeit macht
%%score 1 { ( 2 3 ) | ( 4 5 6 ) }
L:1/8
Q:1/4=69
M:4/8
K:F
V:1 treble-8 nm="Midi_72"
V:2 treble nm="Midi_1"
V:3 treble 
V:4 bass 
V:5 bass 
V:6 bass 
V:1
"^Allegro" z4 |[M:3/8] z8 |[M:4/8] z4 |[M:3/8] z8 |[M:2/4]"^Langsam"!p! (!fermata!AG) (FG) | %5
w: ||||Wenn * ~mein *|
"^Gustav Mahler""^1860 - 1911" A4 x |[M:2/4][K:treble-8] A2 d2 | A4 |[M:3/8] z8 | %9
w: Schatz|Hoch- zeit|macht,||
[M:2/4]"^Andante" (!fermata!BA) GA x | B2 d2 | B4 |[M:3/8] !fermata!z3 | %13
w: froeh * li- che|Hoch- zeit|macht,||
[M:4/8][K:treble-8]"^Andante" A2 f2 | e2 d2 | (ed)cB |"^Allegro" A4 | z4 | z4 | z4 | z4 | %21
w: hab' ich|mei- nen|trau * ri- gen|Tag!|||||
!p!"^Andante" B2 A2 | A2 G2 | B2 A2 | (A2 G2) | (F_E) (DE) | F2 G2 |"^Allegro" F4 | z4 | %29
w: Geh' ich|in mein|Kaem- mer-|lein, *|dunk * les *|Kaem- mer-|lein,||
"^Andante""^espress." (_ED) E2 | (!tenuto!D2 !tenuto!C2-) | %31
w: wei- * ne|wein' *|
 (!tenuto!D!tenuto!C)!tenuto!=B,!tenuto!C | D4 | _E2 (c2 | B2) _A2 |"^rit." (G2 B2-) | B2 ^F2 | %37
w: um * mei- nen|Schatz,|um *|mei- nen|lie- *|* ben|
"^Allegro" G2 z2 |[M:3/8] z8 | z8 |[M:4/8] z8 | z4 | !fermata!z4 | %43
w: Schatz!||||||
[M:6/8][K:treble-8]"^Moderato" z6 | z6 |!pp! B2 c B3 | B2 c B2 B | c2 d _e2 e | (fg)f _e3 | %49
w: ||Bluem- lein blau!|Bluem- lein blau! Ver-|dor- re nicht Ver-|dor- * re nicht!|
 z2 z!pp! B2 c | B3 B2 c |[M:3/8] B3 |[M:6/8][K:treble-8] z2 z z2 D | G2 =A (Bc)d | _e3 d3 | z6 | %56
w: Voeg- lein|suess! Voeg- lein|suess!|Du|singst auf grue- * ner|Hai- de.||
!f! c2!<(! B (A!<)!!>(!^G)A | !^!d2 A!>)! B2 z/!p! d/ | c3- c2 z/ g/ | c3- c2 z/ g/ | c3- c z z | %61
w: Ach! wie ist * die|Welt so schoen! Zi-|kueth! * Zi-|kueth! * Zi-|kueth! *|
 z6 | !fermata!z6 ||[M:2/4] x4 |[M:2/4][K:treble]"^Wie im Anfang"!p! (AG) (FG) | A4 | A2 d2 | A4 | %68
w: |||Sin * get *|nicht!|Blue- het|nicht!|
 (BA) (GA) | B2 d2 | B4 | A2 f2 | e2 d2 | c2 B2 |"^Allegro" A4 | z4 | z2 !fermata!z"^Andante" A | %77
w: Lenz * ist *|ja vor-|bei!|Al- les|Sin- gen|ist nun|aus.||Des|
!pp! B2 A2 | A2 G2 | (F_E) (DE) | F4 |"^espress." (_ED) E2 | D2!>(! C2 | %83
w: A- bends,|wenn ich|schla * fen *|geh'|denk * ich|an mein|
 (!^!D!^!C !^!=B,!^!C)!>)! | D2!<(! z2 | (_E2!<)!!>(! c2) | (B2!>)!!<(! _A2) | %87
w: Lei * * *|de!|An *|mein *|
"^rit." (G2!<)!!>(! !^!B2-) |[M:3/4] B2!>)! ^F2"^Allegro" z2 |[M:4/8] z8 |[M:3/8] z3 |[M:4/8] z4 | %92
w: Lei *|* de!||||
 z4 |[M:3/8] z8 | z8 | z8 | z3 | !fermata!z3 |] x3 |] %99
w: |||||||
V:2
!p! ([FA]/[EG]/[DF]/[EG]/.[FA]) z |[M:4/8] .[Fd] !tenuto![FA]2 ([FA]/ [EG]/ x3 | %2
[M:4/8] [DF]/[EG]/.[FA]) z x |[M:3/8]!pp! .[Fd] !tenuto![FA]2 x | %4
[M:3/8] (!fermata![FA] [EG][DF] x | [EG] [FA]4) |[M:2/4]!f! [A,FA]4 | %7
"^Allegro"!mf! ([FA]/[EG]/[DF]/[EG]/ .[FA]) z | %8
[M:2/4] .[Fd] !tenuto!!fermata![FA]2"^Andante"!pp! ([GB] |[M:2/4] [FA][B,EG] [FA] [GB]2 | %10
 [FBd]2)!mf! [GB]/([DA]/[B,G]/[DA]/ | .[GB]) z .[Bd] x |[M:3/8] !tenuto!!fermata![GB]2 x | %13
[M:4/8]!p! (A2 f2 | [Gce]2 [FBd]2 | [EAc]2 [DGB]2) |!mf! ([FA]/[EG]/[DF]/[EG]/!>(! .[FA]).[Fd] | %17
 [FA]2 [Fd][FA]- | ([FA]/[EG]/[DF]/"^rit."[EG]/!>)! [FA]2-) | [FA]4 | [FA]4 |!pp! (B2 A2 | A2 G2) | %23
 B2 A2 | A2 G2 | ([DF][!courtesy!=C_E][B,D][CE] | [DF]2 [^CG]2) | %27
 ([df]/[!courtesy!=c_e]/[Bd]/[ce]/[^cf]) z |{f} [dfb] [Bdf]3 | [G,!courtesy!=D_E]4 | [G,_E]4 | D4 | %32
 D4 | [G,C_E]4 | (([D_EB]2 [CE_A]2)) | (G2 D2-) | [CD]3 !^![c_e]- | %37
!f! ([Bd]/[Ac]/!>(![GB]/[Ac]/[Bd]) z |[M:4/8]{d} .[Bdg]!>)! [Bd]2{D} .[B,DG] | %39
!>(! [B,D]2- [B,D]/[A,C]/!>)![G,B,]/[A,C]/ |[M:4/8]"^rit." [B,D]2- [B,D]4 | !fermata![B,D]4 | %42
[K:Eb][M:4/8] x4 |[M:6/8]!pp! !^!b6 | !^!b6 | !^!b6 | !^!b6 | b6 | !^!b3 !^!e'3 | %49
"^sempre" b _a/ g/ f/!pp! e/{fbc'} PTb3 | b !courtesy!_a/ g/ f/ e/{fbc'} Tb3 |[M:6/8] [eb]3 | %52
[M:6/8] fe/d/c/B/!<(! (.b.b.b) | PTg3!<)!({^fg} .d'/.c'/.b/.=a/.g/.=f/) | %54
 ([eg]/ [df]/ [ce]/ [df]/ !tenuto![eg])!mf!{g} .[dgb] [Bdg]2 | %55
 ([gb]/ [f=a]/ [eg]/ [fa]/ !tenuto![gb])!f!{b} .[fad'] [dfb]2 | %56
!mf! (!^![c=e=a][Bdg][GBc]) c(.d/.e/.f/.g/) | T=a3{^ga} (.b/.c'/d'=g) |!p! !^!Tb3 x3 | %59
 !^!PTb3({!courtesy!=ab} !^!f'/.!courtesy!=e'/.f'/.d'/.e'/.c'/) | %60
 (!^![fbd']/.c'/.d'/.b/.[!courtesy!=ec']/.=a/ .[dfb]/.g/!^![ebd']/.[bc']/.d'/.b/) | %61
 (.[c=ec']/.=a/.[dfb]/.g/.[Bf]/.d/) (.[Be]/.d/.e/.c/.d/.B/-) | %62
 (.[Bf]/.!courtesy!=e/.f/.d/.[=Ae]/.c/) (d/B/!ppp!e/c/d/B/) ||[M:2/4] x4 | %64
[M:2/4]!pp! ([F=A][=EG] [DF][EG]) | [=A,F=A]4 | ([F=A]2 [=Ed]2 | [F=A]4) | ([GB][D=A] [B,G][DA]) | %69
 ([GB]2 [Fd]2 | [GB]4) | (=A2 f2) | ([G=e]2 [Fd]2) | ([=Ac]2 [GB]2) | %74
!mf! ([F=A]/[=EG]/[DF]/[EG]/ .[FA]).[Ed] | ([F=A]2- [FA]/[=EG]/[DF]/[EG]/ |!p! !fermata![F=A]4) | %77
!pp! (B2 =A2) | =A2 G2 | ([DF][!courtesy!=C_E] [B,D][CE] | [DF]4) | [G,!courtesy!=D_E]4 | %82
 (!courtesy!=D2 C2) | D4 | D4 | [C_E]4 | ([DB]2 [C_A]2) | G2 !^!D2- |[M:2/4] [CD]4 x2 | %89
[M:2/4] (!^![c_e]2!ppp! ([Bd]/)[=Ac]/[GB]/[Ac]/ x2 |[M:3/8] .[Bd]) z x | %91
[M:3/8]{d} .[Bdg] !tenuto![Bd]2 x |[M:3/8] [Bd]/[=Ac]/[GB]/[Ac]/.[Bd] x | z z{d} [Bdg] x | %94
[M:3/8] [Bd]2-"^rit.." [Bd]2 | [=A_e] [Bd]3 | [=A_e] [Bd]2- | [Bd]3 |] !fermata![Bd]3 |] %99
V:3
 x4 |[M:4/8] x2 x x4 |[M:4/8] x2 x x |[M:3/8] A,4 |[M:3/8] A,4 | x5 |[M:2/4] x4 | x4 |[M:2/4] x4 | %9
[M:2/4] x5 | x4 | x4 |[M:3/8] x3 |[M:4/8] [FA]4 | x4 | x4 | x4 | x4 | x4 | x4 | x4 | D4 | ^C4 | %23
 D4 | ^C4 | x4 | x4 | x2 .G.A | B x x2 | x4 | (!courtesy!=D2 C2) | C2 !^!=B,!^!C | (C2 =B,2) | x4 | %34
 x4 | B,4 | x4 | x4 |[M:4/8] x4 | x4 |[M:4/8] x6 | x4 |[K:Eb][M:4/8] x4 |[M:6/8] (e2 f def) | %44
 (e2 f def) | ([Be]2 [cf] [Ad][Be][cf]) | ([dg]2 [ea] [cf][dg][Be]) | (!^![cf]cd [Be]/f/ge) | %48
 ([cf][dg][fb] [ea][eg][ef]) |{=a} e3 f[I:staff +1]e/!courtesy!=d/c/B/ | %50
[I:staff -1] e3 f[I:staff +1]e/d/c/B/ |[M:6/8][I:staff -1] x2 x |[M:6/8] [FB]6 | [Gd]6 | x4 x2 | %55
 e3 x x2 | x2 x [F=A]3 | d6 | x2 x{P=a(b} .f'/.!courtesy!=e'/.f'/.d'/.e'/).c'/ | x4 x2 | x6 | x6 | %62
 x6 ||[M:2/4] x4 |[M:2/4] =A,4 | x4 | x4 | x4 | x4 | x4 | x4 | F4 | =A4 | (3(=E2 _E2 D2) | x4 | %75
 x4 | x4 | (D4 | ^C4) | x4 | x4 | x4 | [G,_E]4 | C2 !^!=B,!^!C | (C2 =B,2) | x4 | _E4 | B,4 | %88
[M:2/4] x4 x2 |[M:2/4] x2 x4 |[M:3/8] x3 |[M:3/8] x4 |[M:3/8] x4 | x4 |[M:3/8] x4 | x4 | x3 | x3 |] %98
 x3 |] %99
V:4
!p! z2 z .[D,,D,] |[M:4/8] z2 .[D,D] x4 | %2
[M:4/8] z2"^Wenn mein Schatz Hochzeit macht.""^(""^aus:""^Lieder eines fahrenden Gesellen)" z .[D,,D,] | %3
[M:3/8] z2 .!fermata![D,D] x |[M:3/8]!pp!{B,,} [D,,A,,]4 |{B,,} [D,,A,,]4 x | %6
[M:2/4]{B,,} [D,,A,,]4 |!mf!{B,,} [D,,A,,]2 z .[D,,D,] |[M:2/4] z2 .!fermata![D,D] x | %9
[M:2/4]!pp!{B,,} [D,,A,,]4 x |{B,,} [D,,A,,]4 |!mf!{B,,} [D,,A,,]2 z .!fermata![D,,D,] | %12
[M:3/8] z2 .[D,D] |[M:4/8]!p! (A,,2 D,2 | E,2 F,2 | ^F,2 G,2) |!mf!{^G,} [D,A,]4 | z .A,,, D,,2- | %18
 D,,3 .A,,, | .D,,.A,,,.D,,.A,,, | D,,4 |!pp! ([B,,F,]4- | [B,,!courtesy!=E,]4) | ([B,,F,]4- | %24
 [B,,!courtesy!=E,]4) | [B,,F,]4- | [B,,F,]4 |"^l. H." D2 x2 | [B,,F,]4 | [B,,,B,,]4 | [A,,,A,,]4 | %31
 F,2 ^F,2 | !courtesy!=F,4 | [C,,G,,]4- | [C,,G,,]4 | [D,,D,]4- | [D,,D,]4 | %37
!f! (D,/_E,/D,/E,/ D,/E,/D,/E,/ |[M:4/8] D,/_E,/D,/E,/D,/E,/ x | D,/_E,/D,/E,/D,/E,/) x | %40
[M:4/8] D,_E, .D,2- x2 | D,4 |[K:Eb][M:4/8] !fermata!D,4 |[M:6/8][K:treble]!pp! [EB]6 | [EB]6 | %45
 (G2 A FGA) | (B2 c ABG) | (AFB G/A/BG) | (AB_d cBA) |!pp! [EGB]3- [EAB]3 | ([EGB]3- [EAB]3) | %51
[M:6/8] B3 |[M:6/8][K:bass] [B,,F,D]6 | [B,,G,D]6 | ([G,CE]3-!mf! [G,B,D]3) | x2 x D3 | %56
!mf! (C,D,=E, F,3) | [C,D]6- |!p! !courtesy!=E3- F3 | (!courtesy!=E3 F3) | %60
[K:treble]"^accel." (G2 =A B G2) | (=AB!^!F"^poco rit. molto riten." ^F G2) | %62
 (.D.=E.^F .G.D!ppp!.!fermata!E) ||[M:2/4][K:bass] x4 |[M:2/4]!pp!{B,,} [D,,=A,,]4 | %65
{B,,} [D,,=A,,]4 |{B,,} [D,,=A,,]4 |{B,,} [D,,=A,,]4 |{B,,} [D,,=A,,]4 |{B,,} [D,,=A,,]4 | %70
{B,,} [D,,=A,,]4 | (3(=A,,2 B,,2 =B,,2) | (3(C,2 ^C,2 D,2) | (3(=E,2 ^F,2 G,2) |!mf!{B,} [D,=A,]4 | %75
 .[D,=A,].=A,,, .D,,.A,,, |!p! .D,,.=A,,, !fermata!D,,2 |!pp! [B,,F,]4 | [B,,!courtesy!=E,]4 | %79
 [B,,F,]4- | [B,,F,]4 | [B,,,B,,]4 | [=A,,,=A,,]4 | F,2 ^F, z | !courtesy!=F,4 | G,4 | x4 | %87
"^rtt." [D,,D,]4- |[M:2/4] [D,,D,]6 |[M:2/4]!ppp! D,/_E,/D,/E,/ D,/E,/D,/E,/ x2 |[M:3/8] x3 | %91
[M:3/8] (D,/_E,/D,/E,/D,/E,/ x |[M:3/8] D,/_E,/D,/E,/D,/E,/D,/E,/ | D,_E,D,(E,) | %94
[M:3/8] (D,_E,D,-) x | [G,,D,]).D,,,.G,,, x | .D,,,.G,,,.D,,, | .G,,,.D,,,.G,,, |] !fermata!z3 |] %99
V:5
 x4 |[M:4/8] x7 |[M:4/8] x4 |[M:3/8] x4 |[M:3/8] x4 | x5 |[M:2/4] x4 | x4 |[M:2/4] x4 |[M:2/4] x5 | %10
 x4 | x4 |[M:3/8] x3 |[M:4/8] [D,,A,,]4- | D,,4 | x4 | x4 | x4 | x4 | x4 | x4 | x4 | x4 | x4 | x4 | %25
 x4 | x4 | [B,,F,]4- | x4 | x4 | x4 | [_A,,,_A,,]4 | [G,,,G,,]4 | x4 | x4 | x4 | x4 | G,,4 | %38
[M:4/8] G,,3- x | G,,3 x |[M:4/8] G,,3 .D,, x2 | .G,,.D,,.G,,.D,, |[K:Eb][M:4/8] G,,4 | %43
[M:6/8][K:treble] (G2 A FGA) | (G2 A FGA) | E6 | E6 | E6 | E6 | x4 x2 | x4 x2 | %51
[M:6/8] (E/C/B,/G,/E,/G,/) |[M:6/8][K:bass] x4 x2 | x4 x2 | B,,6- | B,,6 | C,6 | %57
 ([^F,=A,]3 [G,B,]3) | [C,G,B,]6 | [C,G,B,]6 |[K:treble] C4- x2 | C6 | !fermata!C6 || %63
[M:2/4][K:bass] x4 |[M:2/4] x4 | x4 | x4 | x4 | x4 | x4 | x4 | D,,4 | D,,4 | D,,4 | x4 | x4 | x4 | %77
 x4 | x4 | x4 | x4 | x4 | x4 | [_A,,,_A,,]4 | [G,,,G,,]4 | [C,,G,,]4- | [C,,G,,]4 | x4 | %88
[M:2/4] x4 x2 |[M:2/4] G,,4 x2 |[M:3/8] x3 |[M:3/8] G,,3 x |[M:3/8] G,,4- | G,,4 |[M:3/8] G,,3 x | %95
 x2 x x | x2 x | x2 x |] x2 x |] %99
V:6
 x4 |[M:4/8] x7 |[M:4/8] x4 |[M:3/8] x4 |[M:3/8] x4 | x5 |[M:2/4] x4 | x4 |[M:2/4] x4 |[M:2/4] x5 | %10
 x4 | x4 |[M:3/8] x3 |[M:4/8] x4 | x4 | x4 | x4 | x4 | x4 | x4 | x4 | x4 | x4 | x4 | x4 | x4 | x4 | %27
 x4 | x4 | x4 | x4 | x4 | x4 | x4 | x4 | x4 | x4 | x4 |[M:4/8] x4 | x4 |[M:4/8] x6 | x4 | %42
[K:Eb][M:4/8] x4 |[M:6/8][K:treble] x6 | x6 | x6 | x6 | x6 | x4 x2 | x4 x2 | x4 x2 |[M:6/8] G2 x | %52
[M:6/8][K:bass] x4 x2 | x4 x2 | x4 x2 | [G,CE]3 [F,=A,]2 [G,B,] | x6 | x6 | x6 | x6 | %60
[K:treble] x6 | x6 | x6 ||[M:2/4][K:bass] x4 |[M:2/4] x4 | x4 | x4 | x4 | x4 | x4 | x4 | x4 | x4 | %73
 x4 | x4 | x4 | x4 | x4 | x4 | x4 | x4 | x4 | x4 | x4 | x4 | x4 | x4 | x4 |[M:2/4] x6 |[M:2/4] x6 | %90
[M:3/8] x3 |[M:3/8] x4 |[M:3/8] x4 | x4 |[M:3/8] x4 | x4 | x3 | x3 |] x3 |] %99

